X: 20803
Q: "Slow."
M: 6/8
L: 1/8
K: C
(GA).G (ed).c | A2A HG2G | d2e f2(g/f/) | (e3 d2)d |\
e2g (ed).B | c2e (cB).G | A2A B2B | c3- c2 |]\
(ed).c (Bc).d | (cB).A B2c |
(ef).e (dc).d | (ef).e (dc).d | (ed).c A2A | G3- G2G |\
(ef).e (dc).d | (ef).e (dc)d | (ed).e dA.B | c3- c2 |]


